pix_core/g/g1.svg

<svg preserveAspectRatio="xMinYMid meet" viewBox="0 0 100 100" xmlns="http://www.w3.org/2000/svg"><path d="m0 0h100v100h-100z" fill="#d8d8d8"/><path d="m36.62 49.666c-3.937.122-7.158 1.677-9.662 4.668h-4.885c-1.993 0-3.67-.493-5.031-1.477s-2.042-2.426-2.042-4.32c0-8.58 1.507-12.871 4.52-12.871.147 0 .675.256 1.588.767.91.509 2.095 1.025 3.555 1.549 1.456.522 2.903.783 4.337.783 1.627 0 3.244-.28 4.849-.838-.122.9-.183 1.701-.183 2.406 0 3.379.986 6.49 2.954 9.333zm39.047 23.225c0 2.916-.888 5.219-2.661 6.909-1.775 1.688-4.133 2.533-7.074 2.533h-31.864c-2.942 0-5.3-.845-7.073-2.533-1.774-1.69-2.662-3.993-2.662-6.909 0-1.288.043-2.547.128-3.773.085-1.227.255-2.554.511-3.975.255-1.421.576-2.74.965-3.955.39-1.216.912-2.401 1.569-3.556.656-1.155 1.408-2.138 2.26-2.953.851-.813 1.89-1.464 3.116-1.949 1.227-.488 2.584-.731 4.066-.731.243 0 .764.262 1.568.785.801.522 1.689 1.106 2.661 1.75s2.272 1.227 3.902 1.751c1.628.52 3.268.783 4.92.783 1.654 0 3.294-.263 4.922-.783 1.63-.524 2.93-1.107 3.902-1.751s1.86-1.228 2.661-1.75c.802-.523 1.325-.785 1.568-.785 1.484 0 2.839.243 4.066.731 1.226.485 2.265 1.136 3.116 1.949.852.815 1.603 1.798 2.26 2.953s1.179 2.34 1.568 3.556c.39 1.215.711 2.534.967 3.955.255 1.421.425 2.748.51 3.975.085 1.226.128 2.485.128 3.773zm-37.334-46.558c0 2.577-.912 4.776-2.735 6.599-1.821 1.824-4.021 2.734-6.598 2.734s-4.777-.91-6.599-2.734c-1.824-1.823-2.734-4.022-2.734-6.599 0-2.575.91-4.776 2.734-6.599 1.822-1.822 4.022-2.734 6.599-2.734s4.777.912 6.598 2.734c1.823 1.823 2.735 4.024 2.735 6.599zm25.667 14c0 3.865-1.368 7.164-4.101 9.899-2.736 2.734-6.035 4.102-9.9 4.102-3.863 0-7.164-1.368-9.898-4.102-2.733-2.735-4.102-6.034-4.102-9.899s1.369-7.164 4.102-9.897c2.734-2.735 6.035-4.103 9.898-4.103 3.865 0 7.164 1.368 9.9 4.103 2.733 2.733 4.101 6.032 4.101 9.897zm21 8.204c0 1.894-.681 3.336-2.042 4.32-1.362.984-3.038 1.477-5.031 1.477h-4.885c-2.504-2.991-5.725-4.546-9.661-4.668 1.967-2.843 2.953-5.954 2.953-9.333 0-.705-.061-1.506-.183-2.406 1.605.558 3.222.838 4.849.838 1.434 0 2.88-.261 4.337-.783 1.46-.524 2.646-1.04 3.556-1.549.911-.511 1.44-.767 1.586-.767 3.013 0 4.521 4.291 4.521 12.871zm-4.667-22.204c0 2.577-.911 4.776-2.734 6.599-1.823 1.824-4.023 2.734-6.599 2.734-2.578 0-4.777-.91-6.598-2.734-1.824-1.823-2.735-4.022-2.735-6.599 0-2.575.911-4.776 2.735-6.599 1.821-1.822 4.02-2.734 6.598-2.734 2.576 0 4.776.912 6.599 2.734 1.823 1.823 2.734 4.024 2.734 6.599z" fill="#fff"/></svg>

<?xml version="1.0" encoding="utf-8"?>
<svg viewBox="0 0 100 100" xmlns="http://www.w3.org/2000/svg" xmlns:bx="https://boxy-svg.com" preserveAspectRatio="xMinYMid meet">
  <rect width="100" height="100" style="fill: rgb(216, 216, 216);"/>
  <path d="M 36.62 49.666 C 32.683 49.788 29.462 51.343 26.958 54.334 L 22.073 54.334 C 20.08 54.334 18.403 53.841 17.042 52.857 C 15.681 51.873 15 50.431 15 48.537 C 15 39.957 16.507 35.666 19.52 35.666 C 19.667 35.666 20.195 35.922 21.108 36.433 C 22.018 36.942 23.203 37.458 24.663 37.982 C 26.119 38.504 27.566 38.765 29 38.765 C 30.627 38.765 32.244 38.485 33.849 37.927 C 33.727 38.827 33.666 39.628 33.666 40.333 C 33.666 43.712 34.652 46.823 36.62 49.666 Z M 75.667 72.891 C 75.667 75.807 74.779 78.11 73.006 79.8 C 71.231 81.488 68.873 82.333 65.932 82.333 L 34.068 82.333 C 31.126 82.333 28.768 81.488 26.995 79.8 C 25.221 78.11 24.333 75.807 24.333 72.891 C 24.333 71.603 24.376 70.344 24.461 69.118 C 24.546 67.891 24.716 66.564 24.972 65.143 C 25.227 63.722 25.548 62.403 25.937 61.188 C 26.327 59.972 26.849 58.787 27.506 57.632 C 28.162 56.477 28.914 55.494 29.766 54.679 C 30.617 53.866 31.656 53.215 32.882 52.73 C 34.109 52.242 35.466 51.999 36.948 51.999 C 37.191 51.999 37.712 52.261 38.516 52.784 C 39.317 53.306 40.205 53.89 41.177 54.534 C 42.149 55.178 43.449 55.761 45.079 56.285 C 46.707 56.805 48.347 57.068 49.999 57.068 C 51.653 57.068 53.293 56.805 54.921 56.285 C 56.551 55.761 57.851 55.178 58.823 54.534 C 59.795 53.89 60.683 53.306 61.484 52.784 C 62.286 52.261 62.809 51.999 63.052 51.999 C 64.536 51.999 65.891 52.242 67.118 52.73 C 68.344 53.215 69.383 53.866 70.234 54.679 C 71.086 55.494 71.837 56.477 72.494 57.632 C 73.151 58.787 73.673 59.972 74.062 61.188 C 74.452 62.403 74.773 63.722 75.029 65.143 C 75.284 66.564 75.454 67.891 75.539 69.118 C 75.624 70.344 75.667 71.603 75.667 72.891 Z M 38.333 26.333 C 38.333 28.91 37.421 31.109 35.598 32.932 C 33.777 34.756 31.577 35.666 29 35.666 C 26.423 35.666 24.223 34.756 22.401 32.932 C 20.577 31.109 19.667 28.91 19.667 26.333 C 19.667 23.758 20.577 21.557 22.401 19.734 C 24.223 17.912 26.423 17 29 17 C 31.577 17 33.777 17.912 35.598 19.734 C 37.421 21.557 38.333 23.758 38.333 26.333 Z M 64 40.333 C 64 44.198 62.632 47.497 59.899 50.232 C 57.163 52.966 53.864 54.334 49.999 54.334 C 46.136 54.334 42.835 52.966 40.101 50.232 C 37.368 47.497 35.999 44.198 35.999 40.333 C 35.999 36.468 37.368 33.169 40.101 30.436 C 42.835 27.701 46.136 26.333 49.999 26.333 C 53.864 26.333 57.163 27.701 59.899 30.436 C 62.632 33.169 64 36.468 64 40.333 Z M 85 48.537 C 85 50.431 84.319 51.873 82.958 52.857 C 81.596 53.841 79.92 54.334 77.927 54.334 L 73.042 54.334 C 70.538 51.343 67.317 49.788 63.381 49.666 C 65.348 46.823 66.334 43.712 66.334 40.333 C 66.334 39.628 66.273 38.827 66.151 37.927 C 67.756 38.485 69.373 38.765 71 38.765 C 72.434 38.765 73.88 38.504 75.337 37.982 C 76.797 37.458 77.983 36.942 78.893 36.433 C 79.804 35.922 80.333 35.666 80.479 35.666 C 83.492 35.666 85 39.957 85 48.537 Z M 80.333 26.333 C 80.333 28.91 79.422 31.109 77.599 32.932 C 75.776 34.756 73.576 35.666 71 35.666 C 68.422 35.666 66.223 34.756 64.402 32.932 C 62.578 31.109 61.667 28.91 61.667 26.333 C 61.667 23.758 62.578 21.557 64.402 19.734 C 66.223 17.912 68.422 17 71 17 C 73.576 17 75.776 17.912 77.599 19.734 C 79.422 21.557 80.333 23.758 80.333 26.333 Z" fill="#fff" bx:origin="-2.38412 -1.795421"/>
</svg>
